db/seeds/files/goal_filters/creative.svg

<svg viewBox="0 0 91 91" xmlns="http://www.w3.org/2000/svg"><g fill="#ffd591"><path d="m45.5 25.34a15 15 0 0 0 -14.91 15 16.85 16.85 0 0 0 .78 4.75 38.29 38.29 0 0 0 2.49 4.73c2.18 3.84 5.47 9.65 5.47 11.81a1.07 1.07 0 0 0 1.07 1.08h10.2a1.07 1.07 0 0 0 1.07-1.08c0-2.16 3.29-8 5.47-11.81a38.29 38.29 0 0 0 2.49-4.73 16.85 16.85 0 0 0 .78-4.75 15 15 0 0 0 -14.91-15zm12.11 19.08a45.06 45.06 0 0 1 -2.32 4.34c-2.75 4.85-5.08 9.12-5.63 11.81h-8.31c-.55-2.69-2.89-7-5.63-11.8a45.06 45.06 0 0 1 -2.32-4.35 14.89 14.89 0 0 1 -.67-4.06 12.78 12.78 0 1 1 25.56 0 14.89 14.89 0 0 1 -.68 4.06z"/><path d="m50.68 75.2a1.06 1.06 0 0 0 -1.46-.4l-1.46.85h-4.53l-1.46-.85a1.06 1.06 0 0 0 -1.46.4 1.08 1.08 0 0 0 .39 1.47l1.7 1a1.06 1.06 0 0 0 .53.14h5.11a1.06 1.06 0 0 0 .53-.14l1.7-1a1.08 1.08 0 0 0 .41-1.47z"/><path d="m50.82 65a1.07 1.07 0 0 0 -1.17-1l-8.52.86a1.08 1.08 0 0 0 .11 2.14h.11l8.52-.86a1.07 1.07 0 0 0 .95-1.14z"/><path d="m50.82 68.22a1.07 1.07 0 0 0 -1.17-1l-8.52.86a1.08 1.08 0 0 0 .11 2.15h.11l8.52-.86a1.07 1.07 0 0 0 .95-1.15z"/><path d="m50.82 71.45a1.07 1.07 0 0 0 -1.17-1l-8.52.86a1.08 1.08 0 0 0 .11 2.15h.11l8.52-.86a1.07 1.07 0 0 0 .95-1.15z"/><path d="m45.5 13.19a1.07 1.07 0 0 0 -1.07 1.08v7.54a1.07 1.07 0 1 0 2.13 0v-7.54a1.07 1.07 0 0 0 -1.06-1.08z"/><path d="m65.11 21.39a1.06 1.06 0 0 0 -1.51 0l-5.3 5.33a1.09 1.09 0 0 0 0 1.52 1.06 1.06 0 0 0 1.51 0l5.27-5.33a1.09 1.09 0 0 0 .03-1.52z"/><path d="m72.13 40.12h-7.46a1.08 1.08 0 0 0 0 2.15h7.46a1.08 1.08 0 0 0 0-2.15z"/><path d="m65.08 59.47-5.27-5.33a1.06 1.06 0 0 0 -1.51 0 1.09 1.09 0 0 0 0 1.52l5.27 5.34a1.06 1.06 0 0 0 1.51 0 1.09 1.09 0 0 0 0-1.53z"/><path d="m32.67 54.14a1.06 1.06 0 0 0 -1.48 0l-5.27 5.33a1.09 1.09 0 0 0 0 1.52 1.06 1.06 0 0 0 1.51 0l5.27-5.33a1.09 1.09 0 0 0 -.03-1.52z"/><path d="m26.33 40.12h-7.46a1.08 1.08 0 0 0 0 2.15h7.46a1.08 1.08 0 0 0 0-2.15z"/><path d="m32.7 26.72-5.27-5.33a1.06 1.06 0 0 0 -1.51 0 1.09 1.09 0 0 0 0 1.52l5.27 5.33a1.05 1.05 0 0 0 .75.32 1.07 1.07 0 0 0 1.06-1.07 1.08 1.08 0 0 0 -.3-.77z"/><path d="m52.2 42.32a1.05 1.05 0 0 0 -.65 0l-6.05 2-6.05-2a1.06 1.06 0 0 0 -1.35.68 1.09 1.09 0 0 0 0 .66l4.26 14a1.06 1.06 0 0 0 1.33.71 1.08 1.08 0 0 0 .7-1.37l-3.65-12 4.43 1.49a1 1 0 0 0 .67 0l4.42-1.49-3.65 12a1.08 1.08 0 0 0 .71 1.35 1.06 1.06 0 0 0 1.33-.71l4.26-14a1.08 1.08 0 0 0 -.71-1.32z"/></g></svg>

<svg id="Слой_1" data-name="Слой 1" xmlns="http://www.w3.org/2000/svg" viewBox="0 0 91 91"><defs><style>.cls-1{fill:#ffd591;}</style></defs><title>4</title><g id="item-Page"><g id="Mobile-Icons"><g id="Group-Copy-9"><g id="_4" data-name="4"><path id="Shape" class="cls-1" d="M45.5,25.34a15,15,0,0,0-14.91,15,16.85,16.85,0,0,0,.78,4.75,38.29,38.29,0,0,0,2.49,4.73c2.18,3.84,5.47,9.65,5.47,11.81a1.07,1.07,0,0,0,1.07,1.08H50.6a1.07,1.07,0,0,0,1.07-1.08c0-2.16,3.29-8,5.47-11.81a38.29,38.29,0,0,0,2.49-4.73,16.85,16.85,0,0,0,.78-4.75A15,15,0,0,0,45.5,25.34ZM57.61,44.42a45.06,45.06,0,0,1-2.32,4.34c-2.75,4.85-5.08,9.12-5.63,11.81H41.35c-.55-2.69-2.89-7-5.63-11.8a45.06,45.06,0,0,1-2.32-4.35,14.89,14.89,0,0,1-.67-4.06,12.78,12.78,0,1,1,25.56,0A14.89,14.89,0,0,1,57.61,44.42Z"/><path id="Shape-2" data-name="Shape" class="cls-1" d="M50.68,75.2a1.06,1.06,0,0,0-1.46-.4l-1.46.85H43.23l-1.46-.85a1.06,1.06,0,0,0-1.46.4,1.08,1.08,0,0,0,.39,1.47l1.7,1a1.06,1.06,0,0,0,.53.14h5.11a1.06,1.06,0,0,0,.53-.14l1.7-1A1.08,1.08,0,0,0,50.68,75.2Z"/><path id="Shape-3" data-name="Shape" class="cls-1" d="M50.82,65a1.07,1.07,0,0,0-1.17-1l-8.52.86A1.08,1.08,0,0,0,41.24,67h.11l8.52-.86A1.07,1.07,0,0,0,50.82,65Z"/><path id="Shape-4" data-name="Shape" class="cls-1" d="M50.82,68.22a1.07,1.07,0,0,0-1.17-1l-8.52.86a1.08,1.08,0,0,0,.11,2.15h.11l8.52-.86A1.07,1.07,0,0,0,50.82,68.22Z"/><path id="Shape-5" data-name="Shape" class="cls-1" d="M50.82,71.45a1.07,1.07,0,0,0-1.17-1l-8.52.86a1.08,1.08,0,0,0,.11,2.15h.11l8.52-.86A1.07,1.07,0,0,0,50.82,71.45Z"/><path id="Shape-6" data-name="Shape" class="cls-1" d="M45.5,13.19a1.07,1.07,0,0,0-1.07,1.08v7.54a1.07,1.07,0,1,0,2.13,0V14.27A1.07,1.07,0,0,0,45.5,13.19Z"/><path id="Shape-7" data-name="Shape" class="cls-1" d="M65.11,21.39a1.06,1.06,0,0,0-1.51,0l0,0L58.3,26.72a1.09,1.09,0,0,0,0,1.52,1.06,1.06,0,0,0,1.51,0l0,0,5.27-5.33A1.09,1.09,0,0,0,65.11,21.39Z"/><path id="Shape-8" data-name="Shape" class="cls-1" d="M72.13,40.12H64.67a1.08,1.08,0,0,0,0,2.15h7.46a1.08,1.08,0,0,0,0-2.15Z"/><path id="Shape-9" data-name="Shape" class="cls-1" d="M65.08,59.47l-5.27-5.33a1.06,1.06,0,0,0-1.51,0,1.09,1.09,0,0,0,0,1.52L63.57,61a1.06,1.06,0,0,0,1.51,0A1.09,1.09,0,0,0,65.08,59.47Z"/><path id="Shape-10" data-name="Shape" class="cls-1" d="M32.67,54.14a1.06,1.06,0,0,0-1.48,0l-5.27,5.33a1.09,1.09,0,0,0,0,1.52,1.06,1.06,0,0,0,1.51,0l5.27-5.33A1.09,1.09,0,0,0,32.67,54.14Z"/><path id="Shape-11" data-name="Shape" class="cls-1" d="M26.33,40.12H18.87a1.08,1.08,0,0,0,0,2.15h7.46a1.08,1.08,0,0,0,0-2.15Z"/><path id="Shape-12" data-name="Shape" class="cls-1" d="M32.7,26.72l-5.27-5.33a1.06,1.06,0,0,0-1.51,0,1.09,1.09,0,0,0,0,1.52l0,0,5.27,5.33a1.05,1.05,0,0,0,.75.32A1.07,1.07,0,0,0,33,27.49,1.08,1.08,0,0,0,32.7,26.72Z"/><path id="Shape-13" data-name="Shape" class="cls-1" d="M52.2,42.32a1.05,1.05,0,0,0-.65,0l-6.05,2-6.05-2A1.06,1.06,0,0,0,38.1,43a1.09,1.09,0,0,0,0,.66l4.26,14a1.06,1.06,0,0,0,1.33.71A1.08,1.08,0,0,0,44.39,57L40.74,45l4.43,1.49a1,1,0,0,0,.67,0L50.26,45,46.61,57a1.08,1.08,0,0,0,.71,1.35,1.06,1.06,0,0,0,1.33-.71l4.26-14A1.08,1.08,0,0,0,52.2,42.32Z"/></g></g></g></g></svg>
